X:1
T:Brendan McMahon's
M:2/2
L:1/8
R:Reel
Z:Rob Greenway irtrad-l 2001-7-28
N:Fingerings for B/C diatonic accordion
K:EDor
  B3A BAFB|(3ABA FA DAFA|B2dA BAFB|ABde fedc|
% 3 2 3213   232 12 1212 3 42 3213 1233 4334
  B3A BAFB|(3ABA FA DAFA|G{c}G{F}GE FA (3dcB|1 AFDE FEE2:|2 AFDE FEEF|
% 3 2 3213   232 12 1212 2 3 2 1 21 23   443   2312 322     2312 3223
|:  G{c}G{F}GF GBdB|(3ABA FA DAFA|G{c}G{F}GF GBdB|AFDE FEE2|
%   2 3 2 1 21 2343   232 12 1212 2 3 2 1 21 2343 2312 322
  G{c}G{F}GF GBdB|(3ABA FA DAFA|G{c}G{F}GE FAdB|AFDE FEE2:|
% 2 3 2 1 21 2343   232 12 1212 2 3 2 1 21 2343 2312 322
